!! 00000] TT[WS
!!!OTL: Yunshu duizhang jiangjieshi
!!!ARE: Asia, China, Shanxi Yongji
!! Ethnic Group: Han
!! WI, 308
!!!SCT: J0372
!!!YEM: Copyright 1995, estate of Helmut Schaffrath.
**kern
*ICvox
*Ivox
!! Mixed meters:  2/4; 3/4
*M3/4
*k[b-]
*F:
{8cc
8cc
8bn
8cc
=1
8r
4dd
8a
4g
=2
*M2/4
8cc
8cc
8bn
8cc
=3
*M3/4
8r
4dd
8a
4g}
=4
*M2/4
{8ff
8dd
8ff
8dd
=5
8cc
8ff
8b-
8a
=6
8g
8f
8e-
8f
=7
8r
4b-
8d
4c}
==
!!!AGN: Xiaodiao. Xinminge, Xuanchuan
!! Neue Text. Politische Liede
!!!ONB: ESAC (Essen Associative Code) Database: CHINA
!!!AMT: irregular
!!!AIN: vox
!!!EED: Helmut Schaffrath
!!!EEV: 1.0
*-
